_includes/icon-bookmark.svg

<svg viewBox="0 0 16 16" xmlns="http://www.w3.org/2000/svg">
<path d="M2 2C2 1.46957 2.21071 0.960859 2.58579 0.585786C2.96086 0.210714 3.46957 0 4 0H12C12.5304 0 13.0391 0.210714 13.4142 0.585786C13.7893 0.960859 14 1.46957 14 2V15.5C14 15.5904 13.9754 15.6792 13.9289 15.7568C13.8824 15.8343 13.8157 15.8979 13.736 15.9405C13.6563 15.9832 13.5664 16.0035 13.4761 15.9992C13.3858 15.9948 13.2983 15.9661 13.223 15.916L8 13.101L2.777 15.916C2.70171 15.9661 2.61423 15.9948 2.52389 15.9992C2.43355 16.0035 2.34373 15.9832 2.264 15.9405C2.18427 15.8979 2.1176 15.8343 2.07111 15.7568C2.02462 15.6792 2.00005 15.5904 2 15.5V2ZM4.5 1.5C4.23478 1.5 3.97754 1.60246 3.79 1.79C3.60246 1.97754 3.5 2.23478 3.5 2.5V13.67L7.723 11.48C7.80506 11.4254 7.90143 11.4 8 11.4C8.09857 11.4 8.19494 11.4254 8.277 11.48L12.5 13.67V2.5C12.5 2.23478 12.3975 1.97754 12.21 1.79C12.0225 1.60246 11.7652 1.5 11.5 1.5H4.5Z"/>
</svg>

<svg width="16" height="16" xmlns="http://www.w3.org/2000/svg"><path d="M2 2a2 2 0 0 1 2-2h8a2 2 0 0 1 2 2v13.5a.5.5 0 0 1-.777.416L8 13.101l-5.223 2.815A.5.5 0 0 1 2 15.5V2Zm2.5-.5c-.265 0-.522.102-.71.29-.188.188-.29.445-.29.71v11.17l4.223-2.19A.497.497 0 0 1 8 11.4c.099 0 .195.025.277.08l4.223 2.19V2.5c0-.265-.102-.522-.29-.71a1.004 1.004 0 0 0-.71-.29h-7Z"/></svg>
